!!!!SEGMENT: pl-gd--ee-1638--002-010_marenzio-luca--motettorum-pro-festis-totius-anni-in-ascensione-domini-o-rex-gloriae.krn
!!!cenid: 15xx:1013
!!!COM: Marenzio, Luca
!!!COM-rismID: pe30003955
!!!CDT: ~1553-1599/08/22
!!!CNT: Italian
!!!GTL: Motettorum pro festis totius anni
!!!OTL: In Ascensione Domini/O Rex gloriae
!!!OMV: 010
!!!PDT: 1588
!!!AGN:
!!!SMS-siglum: PL-GD
!!!SMS-shelfmark: Ee 1638
!!!SMS-shelfwork: 002-010 G
!!!SMS-variant:
!!!SMS-altvar:
!!!NIFC-rismSourceID: 990039238
!!!NIFC-islandoraID: pl-gd:57883
!!!URL-pdf-islandora: https://repozytorium.nifc.pl/islandora/object/pl-gd%3A57883/datastream/PDF/view
!!!URL-scan: https://polish.musicsources.pl/pl/lokalizacje/galeria/klocki-introligatorskie/655 @EN{Scan on Polish Music Herritage in Open Access Website} @PL{Skany w portalu Dziedzictwo Muzyki Polskiej w otwartym dostępie}
!!!ONB-nifc: UWAGA: Cantus: s. 621 (lewa), Altus: s. 469 (lewa), Tenor: s. 317 (lewa), Bassus: s. 165 (lewa)
!!!AIN: 1 alto 1 bass 1 soprn 1 tenor
!!!key:
**kern	**text	**kern	**text	**kern	**text	**kern	**text
*part4	*part4	*part3	*part3	*part2	*part2	*part1	*part1
*staff4	*staff4	*staff3	*staff3	*staff2	*staff2	*staff1	*staff1
*I"BASSO	*	*I"TENORE	*	*I"ALTO	*	*I"CANTO	*
*I'B	*	*I'T	*	*I'A	*	*I'S	*
*Ibass	*	*Itenor	*	*Ialto	*	*Isoprn	*
*ICvox	*	*ICvox	*	*ICvox	*	*ICvox	*
*IG	*	*	*	*	*	*	*
*clefF4	*	*clefC4	*	*clefC3	*	*clefC1	*
*k[]	*	*k[]	*	*k[]	*	*k[]	*
*G:	*	*G:	*	*G:	*	*G:	*
*M2/1	*	*M2/1	*	*M2/1	*	*M2/1	*
*met(C|)	*	*met(C|)	*	*met(C|)	*	*met(C|)	*
=1-	=1-	=1-	=1-	=1-	=1-	=1-	=1-
!LO:TX:a:t=In Aſcensione Domini.	!	!	!	!	!	!	!
!	!	!LO:TX:a:t=In Aſcensione Domini.	!	!	!	!	!
!	!	!	!	!LO:TX:a:t=In Aſcensione Domini.	!	!	!
!	!	!	!	!	!	!LO:TX:a:t=In Aſcensione Domini ..	!
0r	.	0r	.	2r	.	1g	O
.	.	.	.	1g	O	.	.
.	.	.	.	.	.	1a	REx
.	.	.	.	2f#X\	REx	.	.
=2-	=2-	=2-	=2-	=2-	=2-	=2-	=2-
1r	.	1r	.	2.g\	glo-	2.b\	glo-
.	.	.	.	4g\	-ri-	4b\	-ri-
2r	.	1G	O	1g	-ae	1b	-ae
1G\	O	.	.	.	.	.	.
=3-	=3-	=3-	=3-	=3-	=3-	=3-	=3-
.	.	1A	Rex	0r	.	1r	.
2F#X\	Rex	.	.	.	.	.	.
2.G\	glo-	2.B\	glo-	.	.	2r	.
.	.	.	.	.	.	1dd\	do-
4G\	-ri-	4B\	-ri-	.	.	.	.
=4-	=4-	=4-	=4-	=4-	=4-	=4-	=4-
1G	-ae	1B	-ae	2r	.	.	.
.	.	.	.	1g	do-	2dd\	-mi-
1r	.	1r	.	.	.	2b\	-ne
.	.	.	.	2d\	-mi-	2dd\	vir-
=5-	=5-	=5-	=5-	=5-	=5-	=5-	=5-
1r	.	0r	.	2e\	-ne	1cc	-tu-
.	.	.	.	2fny\	vir-	.	.
2r	.	.	.	2.g\	-tu-	2b\	-tum
1G\	do-	.	.	.	.	1b\	do-
.	.	.	.	8f\	.	.	.
.	.	.	.	8e\	.	.	.
=6-	=6-	=6-	=6-	=6-	=6-	=6-	=6-
.	.	1r	.	2.d\	.	.	.
2G\	-mi-	.	.	.	.	2b\	-mi-
.	.	.	.	8c/	.	.	.
.	.	.	.	8B/	.	.	.
2E\	-ne	2r	.	2c/	.	2g/	-ne
!	!	!	!	!LO:SIC:v:t=custos g	!	!	!
2G\	vir-	1d\	Do-	2B/	-tum	2b\	vir-
!	!	!	!	!LO:LB:g=original	!	!	!
=7-	=7-	=7-	=7-	=7-	=7-	=7-	=7-
*	*	*	*	*	*	*lig	*
*	*	*	*	*	*	*col	*
1Fny	-tu-	.	.	1r	.	1a	-tu-
!LO:LB:g=original	!	!	!	!	!	!	!
.	.	2A/	-mi-	.	.	.	.
1E	-tum	2B\	-ne	2r	.	2.g/	.
.	.	2c\	vir-	1g\	do-	.	.
*	*	*	*	*	*	*Xlig	*
*	*	*	*	*	*	*Xcol	*
!	!	!	!	!	!	!LO:SIC:v:t=custos b	!
.	.	.	.	.	.	4a\	.
!	!	!	!	!	!	!LO:LB:g=original	!
=8-	=8-	=8-	=8-	=8-	=8-	=8-	=8-
2r	.	2.d\	-tu-	.	.	2b\	.
!LO:SIC:v:t=custos AA	!	!	!	!	!	!	!
1D	do-	.	.	2f\	-mi-	2.a\	.
.	.	8c\	.	.	.	.	.
.	.	8B\	.	.	.	.	.
.	.	4A/	.	2f\	-ne	.	.
!	!	!LO:SIC:v:t=custos c	!	!	!	!	!
.	.	4B\	.	.	.	8g/	.
!	!	!LO:LB:g=original	!	!	!	!	!
.	.	.	.	.	.	8f/	.
2AA/	-mi-	2c\	.	2e\	vir-	2.a\	.
=9-	=9-	=9-	=9-	=9-	=9-	=9-	=9-
*	*	*lig	*	*	*	*	*
2BB/	-ne	1B	-tum	0d	-tu-	.	.
.	.	.	.	.	.	4g/	.
2C/	vir-	.	.	.	.	1g	.
1D	-tu-	1A	.	.	.	.	.
.	.	.	.	.	.	2f#X/	.
*	*	*Xlig	*	*	*	*	*
=10-	=10-	=10-	=10-	=10-	=10-	=10-	=10-
1GG	-tum	1r	.	0d	-tum	2.g/	-tum
.	.	.	.	.	.	4a\	.
1G	O	2r	.	.	.	1b	.
.	.	1d\	o	.	.	.	.
=11-	=11-	=11-	=11-	=11-	=11-	=11-	=11-
1E	rex	.	.	1G	O	2r	.
.	.	2c#X\	rex	.	.	1g	O
2.D/	glo-	2.d\	glo-	1A	rex	.	.
.	.	.	.	.	.	2f#X/	rex
4D/	-ri-	4d\	-ri-	.	.	.	.
=12-	=12-	=12-	=12-	=12-	=12-	=12-	=12-
0G	-ae	1d	-ae	2.B/	glo-	2.g/	glo-
.	.	.	.	4B/	-ri-	4g/	-ri-
.	.	2r	.	2.B/	-ae	2.g/	-ae
.	.	1d\	do-	.	.	.	.
.	.	.	.	4A/	.	4a\	.
=13-	=13-	=13-	=13-	=13-	=13-	=13-	=13-
2r	.	.	.	1G	.	1b	.
1G	do-	2d\	-mi-	.	.	.	.
.	.	2B\	-ne	1r	.	1r	.
2D/	-mi-	2d\	vir-	.	.	.	.
=14-	=14-	=14-	=14-	=14-	=14-	=14-	=14-
2E\	-ne	1cny	-tu-	1r	.	1r	.
2F\	vir-	.	.	.	.	.	.
*	*	*	*	*	*	*	*ij
1G	-tu-	1B	-tum	2r	.	1g	O
.	.	.	.	1g\	o	.	.
=15-	=15-	=15-	=15-	=15-	=15-	=15-	=15-
1D	-tum	0r	.	.	.	1a	rex
.	.	.	.	2f#X\	rex	.	.
2r	.	.	.	2.g\	glo-	2.b\	glo-
*	*ij	*	*	*	*	*	*
1G\	do-	.	.	.	.	.	.
!	!	!	!	!	!	!LO:SIC:v:t=custos b	!
.	.	.	.	4g\	-ri-	4b\	-ri-
!	!	!	!	!	!	!LO:LB:g=original	!
=16-	=16-	=16-	=16-	=16-	=16-	=16-	=16-
.	.	1r	.	0g	-ae	0b	-ae
*	*	*	*	*	*	*	*Xij
2G\	-mi-	.	.	.	.	.	.
2E\	-ne	2r	.	.	.	.	.
*	*	*	*ij	*	*	*	*
2G\	vir-	1d\	do-	.	.	.	.
=17-	=17-	=17-	=17-	=17-	=17-	=17-	=17-
1F	-tu-	.	.	1r	.	0r	.
.	.	2A/	-mi-	.	.	.	.
!LO:SIC:v:t=custos D	!	!	!	!	!	!	!
1E	-tum	2B\	-ne	2r	.	.	.
!LO:LB:g=original	!	!	!	!	!	!	!
*	*Xij	*	*	*	*	*	*
.	.	2c\	vir-	1g\	do-	.	.
=18-	=18-	=18-	=18-	=18-	=18-	=18-	=18-
0r	.	1d	-tu-	.	.	2r	.
!	!	!	!	!LO:SIC:v:t=custos d	!	!	!
.	.	.	.	2fny\	-mi-	1dd	do-
!	!	!	!	!LO:LB:g=original	!	!	!
.	.	1D	-tum	2d\	-ne	.	.
*	*	*	*Xij	*	*	*	*
.	.	.	.	2f\	vir-	2a\	-mi-
=19-	=19-	=19-	=19-	=19-	=19-	=19-	=19-
1r	.	1r	.	1e	-ti-	2b\	-ne
.	.	.	.	.	.	2cc\	vir-
2r	.	2r	.	1d	-tum	1dd	-tu-
!	!	!LO:SIC:v:t=custos c	!	!	!	!	!
2D/	qui	2d\	qui	.	.	.	.
!	!	!LO:LB:g=original	!	!	!	!	!
=20-	=20-	=20-	=20-	=20-	=20-	=20-	=20-
2E\	tri-	2c\	tri-	2r	.	2g/	-tum
2G\	-um-	2B\	-um-	2d\	qui	2dd\	qui
2C/	-pha-	2c\	-pha-	2e\	tri-	2cc\	tri-
4GG/	-tor	2d\	-tor	2g\	-um-	2b\	-um-
*	*ij	*	*	*	*	*	*
4G\	qui	.	.	.	.	.	.
=21-	=21-	=21-	=21-	=21-	=21-	=21-	=21-
2A\	tri-	1r	.	2f\	-pha-	2cc\	-pha-
2c\	-um-	.	.	2e\	-tor	4g/	-tor
.	.	.	.	.	.	4g/	qui
2F\	-pha-	1c	qui	2r	.	2a\	tri-
*	*	*	*	*	*ij	*	*
4C/	-tor	.	.	2e\	qui	2cc\	-um-
4C/	qui	.	.	.	.	.	.
=22-	=22-	=22-	=22-	=22-	=22-	=22-	=22-
2D/	tri-	2A/	tri-	2d\	tri-	1.fny	-pha-
2E\	-um-	2A/	-um-	2c/	-um-	.	.
2BB-X/	-pha-	2B-X\	-pha-	2d\	-pha-	.	.
2FF/	-tor	2c\	-tor	2f\	-tor	2a\	-tor
*	*Xij	*	*	*	*Xij	*	*
=23-	=23-	=23-	=23-	=23-	=23-	=23-	=23-
1.C	ho-	1.c	ho-	1.e	ho-	1.g	ho-
2C/	-di-	2c\	-di-	2e\	-di-	2g/	-di-
=24-	=24-	=24-	=24-	=24-	=24-	=24-	=24-
1C	-e	1c	-e	1e	-e	1g	-e
!LO:SIC:v:t=custos C	!	!	!	!	!	!	!
1r	.	1r	.	2A/	ſu-	2c/	ſu-
!LO:LB:g=original	!	!	!	!	!	!	!
.	.	.	.	2B/	-per	2d/	-per
=25-	=25-	=25-	=25-	=25-	=25-	=25-	=25-
!	!	!	!	!	!	!LO:SIC:v:t=custos f	!
0r	.	0r	.	2c/	om-	2e/	om-
!	!	!	!	!	!	!LO:LB:g=original	!
.	.	.	.	2d\	-nes	2f/	-nes
.	.	.	.	2e\	coe-	2g\	coe-
!	!	!	!	!LO:SIC:v:t=custos g	!	!	!
.	.	.	.	2f\	-los	2a\	-los
!	!	!	!	!LO:LB:g=original	!	!	!
=26-	=26-	=26-	=26-	=26-	=26-	=26-	=26-
0r	.	0r	.	2g\	aſ-	2b\	aſ-
.	.	.	.	2a\	-cen-	2cc\	-cen-
.	.	.	.	1f	-diſ-	1dd	-diſ-
=27-	=27-	=27-	=27-	=27-	=27-	=27-	=27-
2r	.	2r	.	1e	-ti	1ee	-ti
1C	ho-	1G	ho-	.	.	.	.
.	.	.	.	1.e	ho-	1.cc	ho-
2C/	-di-	2G/	-di-	.	.	.	.
=28-	=28-	=28-	=28-	=28-	=28-	=28-	=28-
1C	-e	1G	-e	.	.	.	.
.	.	.	.	2e\	-di-	2cc\	-di-
2AA/	ſu-	2C/	ſu-	0.e	-e	0.cc	-e
2BBny/	-per	2D/	-per	.	.	.	.
=29-	=29-	=29-	=29-	=29-	=29-	=29-	=29-
2C/	omn-	2E/	omn-	.	.	.	.
2D/	-nes	2F/	-nes	.	.	.	.
2E\	coe-	2G/	coe-	.	.	.	.
!	!	!LO:SIC:v:t=custos B	!	!	!	!	!
2F\	-los	2A/	-los	.	.	.	.
!	!	!LO:LB:g=original	!	!	!	!	!
=30-	=30-	=30-	=30-	=30-	=30-	=30-	=30-
2G\	aſ-	2Bny\	aſ-	0r	.	1r	.
2A\	-cen-	2c\	-cen-	.	.	.	.
1B	-diſ-	1d	-dit	.	.	2r	.
.	.	.	.	.	.	1g\	ne
=31-	=31-	=31-	=31-	=31-	=31-	=31-	=31-
2c\	-ti	2e\	ne	2r	.	.	.
2F\	ne	2c\	de-	2f\	ne	1a	de-
2F\	de-	2c\	-re-	2f\	de-	.	.
2G\	-re-	2B\	-lin-	2d\	-re-	2g/	-re-
=32-	=32-	=32-	=32-	=32-	=32-	=32-	=32-
1.D	-lin-	1.A	-qu-	1.d	-lin-	1.f	-lin-
2E\	-quas	2G#X/	-as	2B/	-quas	2e/	-quas
=33-	=33-	=33-	=33-	=33-	=33-	=33-	=33-
1E	nos	1G#X	nos	1B	nos	1e	nos
1.D	or-	1.A	or-	1.d	or-	1.f	or-
=34-	=34-	=34-	=34-	=34-	=34-	=34-	=34-
.	.	.	.	.	.	.	.
!LO:SIC:v:t=custos C	!	!	!	!	!	!	!
2C/	-pha-	2c\	-pha-	2e\	-pha-	2g/	pha-
!LO:LB:g=original	!	!	!	!	!	!	!
0C	-nos	1c	-nos	0.e	-nos	0.g	-nos
=35-	=35-	=35-	=35-	=35-	=35-	=35-	=35-
.	.	2r	.	.	.	.	.
.	.	2Gny/	ſed	.	.	.	.
2r	.	1c	mit-	.	.	.	.
2C/	ſed	.	.	.	.	.	.
=36-	=36-	=36-	=36-	=36-	=36-	=36-	=36-
1F	mit-	2c\	-te	0r	.	0r	.
.	.	2A/	pro-	.	.	.	.
2F\	-te	1c	-miſ-	.	.	.	.
2E\	pro-	.	.	.	.	.	.
=37-	=37-	=37-	=37-	=37-	=37-	=37-	=37-
1G	-miſ-	2B\	-ſum	2.g\	pat-	1r	.
.	.	2.d\	pat-	.	.	.	.
.	.	.	.	4g\	-ris	.	.
2D/	-ſu(m)	.	.	2f\	in	2r	.
!	!	!LO:SIC:v:t=custos c	!	!	!	!	!
.	.	4d\	-ris	.	.	.	.
!	!	!LO:LB:g=original	!	!	!	!	!
2.E\	pat-	2c\	in	2e\	nos	2.g/	pat-
=38-	=38-	=38-	=38-	=38-	=38-	=38-	=38-
!	!	!	!	!LO:SIC:v:t=custos g	!	!	!
.	.	1B	nos	0r	.	.	.
!	!	!	!	!LO:LB:g=original	!	!LO:SIC:v:t=custos f	!
4E\	-ris	.	.	.	.	4g/	-ris
!	!	!	!	!	!	!LO:LB:g=original	!
2D/	in	.	.	.	.	2f/	in
0C	nos	2.c\	ſpi-	.	.	1e	nos
.	.	4A/	-ri-	.	.	.	.
=39-	=39-	=39-	=39-	=39-	=39-	=39-	=39-
.	.	1G	-tum	2.g\	ſpi-	2.ee\	ſpi-
.	.	.	.	4f\	-ri-	4dd\	-ri-
1r	.	1r	.	2e\	-tum	2cc\	-tum
.	.	.	.	2.d\	ve-	2.b\	ve-
=40-	=40-	=40-	=40-	=40-	=40-	=40-	=40-
1r	.	1r	.	.	.	.	.
.	.	.	.	4c/	-ri-	4a\	-ri-
.	.	.	.	2B/	-ta-	2g#X/	-ta-
2.c\	ſpi-	2.e\	ſpi-	1A	-tis	1a	-tis
4B\	-ri-	4d\	-ri-	.	.	.	.
=41-	=41-	=41-	=41-	=41-	=41-	=41-	=41-
2A\	-tum	2c\	-tum	0r	.	0r	.
2.G\	ve-	2.B\	ve-	.	.	.	.
4F\	-ri-	4A/	-ri-	.	.	.	.
2E\	-ta-	2G#X/	-ta-	.	.	.	.
=42-	=42-	=42-	=42-	=42-	=42-	=42-	=42-
*	*	*	*	*	*ij	*	*
1D	-tis	1A	-tis	2.f\	ſpi-	2.dd\	ſpi-
.	.	.	.	4e\	-ri-	4cc\	-ri-
1r	.	1r	.	2d\	-tum	2b\	-tum
.	.	.	.	2.c/	ve-	2.a\	ve-
=43-	=43-	=43-	=43-	=43-	=43-	=43-	=43-
1r	.	1r	.	.	.	.	.
.	.	.	.	4B/	-ri-	4gny/	-ri-
.	.	.	.	2A/	-ta-	2f#X/	-ta-
2r	.	2r	.	1G	-tis	0.g	-tis
*	*	*	*	*	*Xij	*	*
!LO:SIC:v:t=custos E	!	!	!	!	!	!	!
2G\	Al-	2B\	Al-	.	.	.	.
!LO:LB:g=original	!	!	!	!	!	!	!
=44-	=44-	=44-	=44-	=44-	=44-	=44-	=44-
2E\	-le-	2B\	-le-	2r	.	.	.
2G\	-lu-	2B\	-lu-	2d\	Al-	.	.
2C/	-ia	0c	-ia	1.e	-le-	.	.
*	*ij	*	*	*	*	*	*
2c\	Al-	.	.	.	.	.	.
=45-	=45-	=45-	=45-	=45-	=45-	=45-	=45-
2A\	-le-	.	.	.	.	2r	.
*	*	*	*	*	*	*	*ij
2c\	-lu-	.	.	2e\	-lu-	2g/	Al-
2F\	-ia	2r	.	2f\	-ia	1.a	-le-
*	*	*	*ij	*	*ij	*	*
2A\	Al-	2c\	Al-	2F/	Al-	.	.
=46-	=46-	=46-	=46-	=46-	=46-	=46-	=46-
2F\	-le-	2c\	-le-	2f\	-le-	.	.
!	!	!LO:SIC:v:t=custos d	!	!	!	!	!
2A\	-lu-	2c#X\	-lu-	2e\	-lu-	2a\	-lu-
!	!	!LO:LB:g=original	!	!	!	!	!
2D/	-ia	2d\	-ia	2f\	-ia	2a\	-ia
2G\	Al-	2B\	Al-	2d\	Al-	2b\	Al-
=47-	=47-	=47-	=47-	=47-	=47-	=47-	=47-
!	!	!	!	!	!	!LO:SIC:v:t=custos b	!
2E\	-le-	2e\	-le-	2g\	-le-	2b\	-le-
!	!	!	!	!	!	!LO:LB:g=original	!
!	!	!	!	!LO:SIC:v:t=custos g	!	!	!
2G\	-lu-	2d\	-lu-	2g\	-lu-	2b\	-lu-
!	!	!	!	!LO:LB:g=original	!	!	!
2C/	-ia	2cny\	-ia	2.g\	-ia	2cc\	-ia
2E\	Al-	2B\	Al-	.	.	2g/	Al-
.	.	.	.	4f\	.	.	.
=48-	=48-	=48-	=48-	=48-	=48-	=48-	=48-
2C/	-le-	2c\	-le-	1e	.	2g/	-le-
2E\	-lu-	2B\	-lu-	.	.	2g#X/	-lu-
0.AA	-ia	4A/	-ia	2r	.	1a	-ia
.	.	4B\	.	.	.	.	.
.	.	4c\	.	2e\	Al-	.	.
.	.	4d\	.	.	.	.	.
=49-	=49-	=49-	=49-	=49-	=49-	=49-	=49-
.	.	2e\	.	2c/	-le-	2r	.
.	.	2c\	Al-	2e\	-lu-	2ee\	Al-
.	.	2A/	-le-	2e\	-ia	2cc\	-le-
.	.	2c\	-lu-	2a\	Al-	2ee\	-lu-
=50-	=50-	=50-	=50-	=50-	=50-	=50-	=50-
0D	Al-	1F	-ia	2f\	-le-	2a\	-ia
.	.	.	.	2a\	-lu-	4r	.
.	.	.	.	.	.	4a\	Al-
.	.	2A/	Al-	2d\	-ia	2fny/	-le-
.	.	2.d\	-le-	2f#X\	Al-	2a\	-lu-
=51-	=51-	=51-	=51-	=51-	=51-	=51-	=51-
0BB	-le-	.	.	2g\	-le-	2d/	-ia
.	.	4c\	.	.	.	.	.
.	.	4B\	.	2d\	-lu-	2dd\	Al-
.	.	4c\	.	.	.	.	.
.	.	1d	.	2G/	-ia	2cc\	-le-
.	.	.	.	2g\	Al-	1dd\	.
=52-	=52-	=52-	=52-	=52-	=52-	=52-	=52-
0D	-lu-	0d	-lu-	2f#X\	-le-	.	.
.	.	.	.	2.g\	-lu-	4cc\	.
.	.	.	.	.	.	4b\	.
.	.	.	.	.	.	1a	-lu-
.	.	.	.	8f#\	.	.	.
.	.	.	.	8e\	.	.	.
.	.	.	.	2f#X\	.	.	.
=53-	=53-	=53-	=53-	=53-	=53-	=53-	=53-
00GG	-ia	00d	-ia	00g	-ia	00b	-ia
*	*Xij	*	*Xij	*	*Xij	*	*Xij
=54-	=54-	=54-	=54-	=54-	=54-	=54-	=54-
.	.	.	.	.	.	.	.
=-	=-	=-	=-	=-	=-	=-	=-
*-	*-	*-	*-	*-	*-	*-	*-
!!!system-decoration: [(s1,s2,s3,s4)]
!!!ENC: Filip Voros
!!!END: 2022-06-30
!!!ENC: Julita Ruszuk
!!!END: 2022-07-05
